; generated by PrusaSlicer 2.3.3+win64 on 2022-04-21 at 20:05:44 UTC

; 

; external perimeters extrusion width = 0.45mm
; perimeters extrusion width = 0.45mm
; infill extrusion width = 0.45mm
; solid infill extrusion width = 0.45mm
; top infill extrusion width = 0.40mm
; first layer extrusion width = 0.42mm

M201 X500 Y500 Z100 E5000 ; sets maximum accelerations, mm/sec^2
M203 X500 Y500 Z10 E60 ; sets maximum feedrates, mm/sec
M204 P500 R1000 T500 ; sets acceleration (P, T) and retract acceleration (R), mm/sec^2
M205 X8.00 Y8.00 Z0.40 E5.00 ; sets the jerk limits, mm/sec
M205 S0 T0 ; sets the minimum extruding and travel feed rate, mm/sec
M107
;TYPE:Custom
G90 ; use absolute coordinates
M83 ; extruder relative mode
M140 S60 ; set final bed temp
M104 S150 ; set temporary nozzle temp to prevent oozing during homing and auto bed leveling
G4 S10 ; allow partial nozzle warmup
G28 ; home all axis
G29 ; auto bed levelling
G1 Z50 F240
G1 X2 Y10 F3000
M104 S210 ; set final nozzle temp
M190 S60 ; wait for bed temp to stabilize
M109 S210 ; wait for nozzle temp to stabilize
G1 Z0.28 F240
G92 E0
G1 Y140 E10 F1500 ; prime the nozzle
G1 X2.3 F5000
G92 E0
G1 Y10 E10 F1200 ; prime the nozzle
G92 E0
G21 ; set units to millimeters
G90 ; use absolute coordinates
M83 ; use relative distances for extrusion
; Filament gcode
;LAYER_CHANGE
;Z:0.2
;HEIGHT:0.2
;BEFORE_LAYER_CHANGE
G92 E0
;0.2


G1 E-5.00000 F3600.000
G1 Z0.200 F9000.000
;AFTER_LAYER_CHANGE
;0.2
G1 X30.230 Y43.620
G1 E5.00000 F2400.000
M204 S500
;TYPE:Skirt
;WIDTH:0.42
G1 F1200.000
G1 X31.624 Y42.697 E0.05242
G1 X32.225 Y42.410 E0.02089
G1 X33.709 Y41.919 E0.04903
G1 X35.462 Y41.723 E0.05528
G1 X195.505 Y41.723 E5.01803
G1 X197.291 Y41.919 E0.05635
G1 X198.818 Y42.426 E0.05045
G1 X200.367 Y43.319 E0.05607
G1 X200.927 Y43.765 E0.02245
G1 X202.015 Y44.895 E0.04916
G1 X202.976 Y46.448 E0.05726
G1 X203.566 Y48.143 E0.05628
G1 X203.775 Y49.880 E0.05486
G1 X203.776 Y181.073 E4.11346
G1 X203.567 Y182.853 E0.05621
G1 X202.962 Y184.581 E0.05741
G1 X201.989 Y186.138 E0.05755
G1 X200.770 Y187.380 E0.05457
G1 X199.376 Y188.303 E0.05242
G1 X198.775 Y188.590 E0.02089
G1 X197.291 Y189.081 E0.04903
G1 X195.538 Y189.277 E0.05528
G1 X35.477 Y189.277 E5.01860
G1 X33.660 Y189.070 E0.05734
G1 X31.931 Y188.468 E0.05741
G1 X30.366 Y187.492 E0.05783
G1 X29.120 Y186.270 E0.05471
G1 X28.200 Y184.880 E0.05228
G1 X27.911 Y184.280 E0.02089
G1 X27.420 Y182.795 E0.04903
G1 X27.223 Y181.047 E0.05514
G1 X27.223 Y49.973 E4.10976
G1 X27.431 Y48.156 E0.05734
G1 X28.034 Y46.427 E0.05741
G1 X29.008 Y44.866 E0.05769
G1 X30.188 Y43.663 E0.05283
G1 E-3.50000 F3600.000
;WIPE_START
G1 F7200.000
G1 X31.624 Y42.697 E-0.82201
G1 X32.225 Y42.410 E-0.31649
G1 X32.797 Y42.221 E-0.28650
;WIPE_END
G1 E-0.07500 F3600.000
G1 X32.812 Y46.629 F9000.000
G1 E5.00000 F2400.000
;TYPE:External perimeter
G1 F1200.000
G1 X33.629 Y46.116 E0.03027
G1 X34.541 Y45.797 E0.03027
G1 X35.488 Y45.690 E0.02990
G1 X37.500 Y45.689 E0.06308
G1 X195.512 Y45.690 E4.95435
G1 X196.459 Y45.797 E0.02990
G1 X197.371 Y46.116 E0.03027
G1 X198.188 Y46.629 E0.03027
G1 X198.871 Y47.312 E0.03027
G1 X199.384 Y48.129 E0.03027
G1 X199.703 Y49.041 E0.03027
G1 X199.810 Y49.988 E0.02990
G1 X199.810 Y181.012 E4.10815
G1 X199.703 Y181.959 E0.02990
G1 X199.384 Y182.871 E0.03027
G1 X198.871 Y183.688 E0.03027
G1 X198.188 Y184.371 E0.03027
G1 X197.371 Y184.884 E0.03027
G1 X196.459 Y185.203 E0.03027
G1 X195.512 Y185.310 E0.02990
G1 X35.488 Y185.310 E5.01743
G1 X34.541 Y185.203 E0.02990
G1 X33.629 Y184.884 E0.03027
G1 X32.812 Y184.371 E0.03027
G1 X32.129 Y183.688 E0.03027
G1 X31.616 Y182.871 E0.03027
G1 X31.297 Y181.959 E0.03027
G1 X31.190 Y181.012 E0.02990
G1 X31.190 Y49.988 E4.10815
G1 X31.297 Y49.041 E0.02990
G1 X31.616 Y48.129 E0.03027
G1 X32.129 Y47.312 E0.03027
G1 X32.770 Y46.672 E0.02839
G1 X32.752 Y46.234 F9000.000
G1 X32.505 Y46.407
G1 F1200.000
G1 X32.577 Y46.335 E0.00320
G1 X33.466 Y45.776 E0.03292
G1 X34.457 Y45.429 E0.03291
G1 X35.512 Y45.311 E0.03329
G1 X195.499 Y45.312 E5.01629
G1 X196.543 Y45.429 E0.03294
G1 X197.534 Y45.776 E0.03292
G1 X198.423 Y46.335 E0.03292
G1 X199.165 Y47.077 E0.03291
G1 X199.724 Y47.966 E0.03292
G1 X200.071 Y48.957 E0.03291
G1 X200.189 Y50.012 E0.03329
G1 X200.189 Y180.988 E4.10667
G1 X200.071 Y182.043 E0.03329
G1 X199.724 Y183.034 E0.03291
G1 X199.165 Y183.923 E0.03292
G1 X198.423 Y184.665 E0.03292
G1 X197.534 Y185.224 E0.03292
G1 X196.543 Y185.571 E0.03291
G1 X195.488 Y185.689 E0.03329
G1 X35.512 Y185.689 E5.01595
G1 X34.457 Y185.571 E0.03329
G1 X33.466 Y185.224 E0.03291
G1 X32.577 Y184.665 E0.03292
G1 X31.835 Y183.923 E0.03292
G1 X31.276 Y183.034 E0.03292
G1 X30.929 Y182.043 E0.03291
G1 X30.811 Y180.988 E0.03329
G1 X30.811 Y50.012 E4.10667
G1 X30.929 Y48.957 E0.03329
G1 X31.276 Y47.966 E0.03291
G1 X31.835 Y47.077 E0.03292
G1 X32.462 Y46.449 E0.02783
G1 X32.604 Y46.429 F9000.000
M106 S255
;LAYER_CHANGE
;Z:0.36
;HEIGHT:0.16
;BEFORE_LAYER_CHANGE
G92 E0
;0.36


G1 E-3.50000 F3600.000
;WIPE_START
G1 F7200.000
G1 X32.577 Y46.335 E-0.07704
G1 X33.466 Y45.776 E-0.49870
G1 X34.457 Y45.429 E-0.49854
G1 X35.190 Y45.347 E-0.35072
;WIPE_END
G1 E-0.07500 F3600.000
G1 Z0.360 F9000.000
;AFTER_LAYER_CHANGE
;0.36
M104 S205 ; set temperature
G1 X28.034 Y46.427
G1 E5.00000 F2400.000
;TYPE:Skirt
G1 X29.008 Y44.866 E0.04720
G1 X30.230 Y43.620 E0.04477
G1 X31.624 Y42.697 E0.04289
G1 X32.225 Y42.410 E0.01709
G1 X33.709 Y41.919 E0.04011
G1 X35.462 Y41.723 E0.04523
G1 X195.505 Y41.723 E4.10581
G1 X197.291 Y41.919 E0.04611
G1 X198.818 Y42.426 E0.04128
G1 X200.367 Y43.319 E0.04588
G1 X200.927 Y43.765 E0.01837
G1 X202.015 Y44.895 E0.04023
G1 X202.976 Y46.448 E0.04685
G1 X203.566 Y48.143 E0.04605
G1 X203.775 Y49.880 E0.04488
G1 X203.776 Y181.073 E3.36568
G1 X203.567 Y182.853 E0.04599
G1 X202.962 Y184.581 E0.04697
G1 X201.989 Y186.138 E0.04709
G1 X200.770 Y187.380 E0.04465
G1 X199.376 Y188.303 E0.04289
G1 X198.775 Y188.590 E0.01709
G1 X197.291 Y189.081 E0.04011
G1 X195.538 Y189.277 E0.04523
G1 X35.477 Y189.277 E4.10628
G1 X33.660 Y189.070 E0.04692
G1 X31.931 Y188.468 E0.04697
G1 X30.366 Y187.492 E0.04732
G1 X29.120 Y186.270 E0.04477
G1 X28.200 Y184.880 E0.04277
G1 X27.911 Y184.280 E0.01709
G1 X27.420 Y182.795 E0.04011
G1 X27.223 Y181.047 E0.04512
G1 X27.223 Y49.973 E3.36265
G1 X27.431 Y48.156 E0.04692
G1 X28.014 Y46.484 E0.04543
G1 E-3.50000 F3600.000
;WIPE_START
G1 F7200.000
G1 X29.008 Y44.866 E-0.90181
G1 X29.779 Y44.080 E-0.52319
;WIPE_END
G1 E-0.07500 F3600.000
G1 X31.602 Y48.123 F9000.000
G1 E5.00000 F2400.000
;TYPE:External perimeter
;WIDTH:0.45
G1 F1500.000
G1 X32.117 Y47.303 E0.02679
G1 X32.803 Y46.617 E0.02679
G1 X33.623 Y46.102 E0.02679
G1 X34.537 Y45.782 E0.02679
G1 X35.487 Y45.675 E0.02644
G1 X195.513 Y45.675 E4.42473
G1 X196.488 Y45.791 E0.02714
G1 X197.377 Y46.102 E0.02605
G1 X198.197 Y46.617 E0.02679
G1 X198.883 Y47.303 E0.02679
G1 X199.398 Y48.123 E0.02679
G1 X199.718 Y49.037 E0.02679
G1 X199.825 Y49.987 E0.02644
G1 X199.825 Y181.013 E3.62288
G1 X199.709 Y181.988 E0.02714
G1 X199.398 Y182.877 E0.02605
G1 X198.883 Y183.697 E0.02679
G1 X198.197 Y184.383 E0.02679
G1 X197.377 Y184.898 E0.02679
G1 X196.463 Y185.218 E0.02679
G1 X195.513 Y185.325 E0.02644
G1 X35.487 Y185.325 E4.42473
G1 X34.512 Y185.209 E0.02714
G1 X33.623 Y184.898 E0.02605
G1 X32.803 Y184.383 E0.02679
G1 X32.117 Y183.697 E0.02679
G1 X31.602 Y182.877 E0.02679
G1 X31.282 Y181.963 E0.02679
G1 X31.175 Y181.013 E0.02644
G1 X31.175 Y49.987 E3.62286
G1 X31.282 Y49.037 E0.02644
G1 X31.582 Y48.179 E0.02513
G1 X31.377 Y47.792 F9000.000
G1 X31.257 Y48.066
G1 F1500.000
G1 X31.289 Y47.972 E0.00273
G1 X31.846 Y47.086 E0.02894
G1 X32.586 Y46.346 E0.02894
G1 X33.472 Y45.789 E0.02894
G1 X34.460 Y45.444 E0.02894
G1 X35.513 Y45.325 E0.02929
G1 X195.518 Y45.328 E4.42416
G1 X196.540 Y45.444 E0.02843
G1 X197.528 Y45.789 E0.02894
G1 X198.414 Y46.346 E0.02894
G1 X199.154 Y47.086 E0.02894
G1 X199.711 Y47.972 E0.02894
G1 X200.056 Y48.960 E0.02894
G1 X200.175 Y50.013 E0.02929
G1 X200.175 Y180.987 E3.62146
G1 X200.056 Y182.040 E0.02929
G1 X199.711 Y183.028 E0.02894
G1 X199.154 Y183.914 E0.02894
G1 X198.414 Y184.654 E0.02894
G1 X197.528 Y185.211 E0.02894
G1 X196.540 Y185.556 E0.02894
G1 X195.487 Y185.675 E0.02929
G1 X35.513 Y185.675 E4.42331
G1 X34.460 Y185.556 E0.02929
G1 X33.472 Y185.211 E0.02894
G1 X32.586 Y184.654 E0.02894
G1 X31.846 Y183.914 E0.02894
G1 X31.289 Y183.028 E0.02894
G1 X30.944 Y182.040 E0.02894
G1 X30.825 Y180.987 E0.02929
G1 X30.825 Y50.013 E3.62146
G1 X30.944 Y48.960 E0.02929
G1 X31.237 Y48.122 E0.02454
G1 X31.353 Y48.043 F9000.000
;LAYER_CHANGE
;Z:0.52
;HEIGHT:0.16
;BEFORE_LAYER_CHANGE
G92 E0
;0.52


G1 E-3.50000 F3600.000
;WIPE_START
G1 F7200.000
G1 X31.289 Y47.972 E-0.07546
G1 X31.846 Y47.086 E-0.49711
G1 X32.586 Y46.346 E-0.49711
G1 X33.219 Y45.948 E-0.35532
;WIPE_END
G1 E-0.07500 F3600.000
G1 Z0.520 F9000.000
;AFTER_LAYER_CHANGE
;0.52
G1 X33.623 Y46.102
G1 E5.00000 F2400.000
G1 F1500.000
G1 X34.537 Y45.782 E0.02679
G1 X35.487 Y45.675 E0.02644
G1 X195.514 Y45.675 E4.42474
G1 X196.502 Y45.796 E0.02754
G1 X197.377 Y46.102 E0.02563
G1 X198.197 Y46.617 E0.02679
G1 X198.883 Y47.303 E0.02679
G1 X199.398 Y48.123 E0.02679
G1 X199.718 Y49.037 E0.02679
G1 X199.825 Y49.987 E0.02644
G1 X199.825 Y181.014 E3.62289
G1 X199.704 Y182.002 E0.02754
G1 X199.398 Y182.877 E0.02563
G1 X198.883 Y183.697 E0.02679
G1 X198.197 Y184.383 E0.02679
G1 X197.377 Y184.898 E0.02679
G1 X196.463 Y185.218 E0.02679
G1 X195.513 Y185.325 E0.02644
G1 X35.486 Y185.325 E4.42474
G1 X34.498 Y185.204 E0.02754
G1 X33.623 Y184.898 E0.02563
G1 X32.803 Y184.383 E0.02679
G1 X32.117 Y183.697 E0.02679
G1 X31.602 Y182.877 E0.02679
G1 X31.282 Y181.963 E0.02679
G1 X31.175 Y181.013 E0.02644
G1 X31.175 Y49.987 E3.62286
G1 X31.282 Y49.037 E0.02644
G1 X31.602 Y48.123 E0.02679
G1 X32.117 Y47.303 E0.02679
G1 X32.803 Y46.617 E0.02679
G1 X33.572 Y46.134 E0.02513
G1 X33.653 Y45.703 F9000.000
G1 X33.388 Y45.842
G1 F1500.000
G1 X33.472 Y45.789 E0.00273
G1 X34.460 Y45.444 E0.02894
G1 X35.513 Y45.325 E0.02929
G1 X195.536 Y45.330 E4.42465
G1 X196.540 Y45.444 E0.02794
G1 X197.528 Y45.789 E0.02894
G1 X198.414 Y46.346 E0.02894
G1 X199.154 Y47.086 E0.02894
G1 X199.711 Y47.972 E0.02894
G1 X200.056 Y48.960 E0.02894
G1 X200.175 Y50.013 E0.02929
G1 X200.175 Y180.987 E3.62146
G1 X200.056 Y182.040 E0.02929
G1 X199.711 Y183.028 E0.02894
G1 X199.154 Y183.914 E0.02894
G1 X198.414 Y184.654 E0.02894
G1 X197.528 Y185.211 E0.02894
G1 X196.540 Y185.556 E0.02894
G1 X195.487 Y185.675 E0.02929
G1 X35.513 Y185.675 E4.42331
G1 X34.460 Y185.556 E0.02929
G1 X33.472 Y185.211 E0.02894
G1 X32.586 Y184.654 E0.02894
G1 X31.846 Y183.914 E0.02894
G1 X31.289 Y183.028 E0.02894
G1 X30.944 Y182.040 E0.02894
G1 X30.825 Y180.987 E0.02929
G1 X30.825 Y50.013 E3.62146
G1 X30.944 Y48.960 E0.02929
G1 X31.289 Y47.972 E0.02894
G1 X31.846 Y47.086 E0.02894
G1 X32.586 Y46.346 E0.02894
G1 X33.338 Y45.874 E0.02454
G1 X33.478 Y45.885 F9000.000
;LAYER_CHANGE
;Z:0.68
;HEIGHT:0.16
;BEFORE_LAYER_CHANGE
G92 E0
;0.68


G1 E-3.50000 F3600.000
;WIPE_START
G1 F7200.000
G1 X33.472 Y45.789 E-0.07547
G1 X34.460 Y45.444 E-0.49711
G1 X35.513 Y45.325 E-0.50315
G1 X36.248 Y45.325 E-0.34928
;WIPE_END
G1 E-0.07500 F3600.000
G1 Z0.680 F9000.000
;AFTER_LAYER_CHANGE
;0.68
G1 X34.537 Y45.782
G1 E5.00000 F2400.000
G1 F1500.000
G1 X35.487 Y45.675 E0.02644
G1 X195.513 Y45.675 E4.42471
G1 X196.463 Y45.782 E0.02644
G1 X197.377 Y46.102 E0.02679
G1 X198.197 Y46.617 E0.02679
G1 X198.883 Y47.303 E0.02679
G1 X199.398 Y48.123 E0.02679
G1 X199.718 Y49.037 E0.02679
G1 X199.825 Y49.987 E0.02644
G1 X199.825 Y181.013 E3.62286
G1 X199.718 Y181.963 E0.02644
G1 X199.398 Y182.877 E0.02679
G1 X198.883 Y183.697 E0.02679
G1 X198.197 Y184.383 E0.02679
G1 X197.377 Y184.898 E0.02679
G1 X196.463 Y185.218 E0.02679
G1 X195.513 Y185.325 E0.02644
G1 X35.487 Y185.325 E4.42471
G1 X34.537 Y185.218 E0.02644
G1 X33.623 Y184.898 E0.02679
G1 X32.803 Y184.383 E0.02679
G1 X32.117 Y183.697 E0.02679
G1 X31.602 Y182.877 E0.02679
G1 X31.282 Y181.963 E0.02679
G1 X31.175 Y181.013 E0.02644
G1 X31.175 Y49.987 E3.62286
G1 X31.282 Y49.037 E0.02644
G1 X31.602 Y48.123 E0.02679
G1 X32.117 Y47.303 E0.02679
G1 X32.803 Y46.617 E0.02679
G1 X33.623 Y46.102 E0.02679
G1 X34.481 Y45.802 E0.02513
G1 X34.655 Y45.400 F9000.000
G1 X34.367 Y45.476
G1 F1500.000
G1 X34.460 Y45.444 E0.00273
G1 X35.513 Y45.325 E0.02929
G1 X195.553 Y45.332 E4.42514
G1 X196.540 Y45.444 E0.02745
G1 X197.528 Y45.789 E0.02894
G1 X198.414 Y46.346 E0.02894
G1 X199.154 Y47.086 E0.02894
G1 X199.711 Y47.972 E0.02894
G1 X200.056 Y48.960 E0.02894
G1 X200.175 Y50.013 E0.02929
G1 X200.175 Y180.987 E3.62146
G1 X200.056 Y182.040 E0.02929
G1 X199.711 Y183.028 E0.02894
G1 X199.154 Y183.914 E0.02894
G1 X198.414 Y184.654 E0.02894
G1 X197.528 Y185.211 E0.02894
G1 X196.540 Y185.556 E0.02894
G1 X195.487 Y185.675 E0.02929
G1 X35.513 Y185.675 E4.42331
G1 X34.460 Y185.556 E0.02929
G1 X33.472 Y185.211 E0.02894
G1 X32.586 Y184.654 E0.02894
G1 X31.846 Y183.914 E0.02894
G1 X31.289 Y183.028 E0.02894
G1 X30.944 Y182.040 E0.02894
G1 X30.825 Y180.987 E0.02929
G1 X30.825 Y50.013 E3.62146
G1 X30.944 Y48.960 E0.02929
G1 X31.289 Y47.972 E0.02894
G1 X31.846 Y47.086 E0.02894
G1 X32.586 Y46.346 E0.02894
G1 X33.472 Y45.789 E0.02894
G1 X34.310 Y45.496 E0.02454
G1 X34.444 Y45.538 F9000.000
;LAYER_CHANGE
;Z:0.84
;HEIGHT:0.16
;BEFORE_LAYER_CHANGE
G92 E0
;0.84


G1 E-3.50000 F3600.000
;WIPE_START
G1 F7200.000
G1 X34.460 Y45.444 E-0.07546
G1 X35.513 Y45.325 E-0.50315
G1 X37.295 Y45.325 E-0.84639
;WIPE_END
G1 E-0.07500 F3600.000
G1 Z0.840 F9000.000
;AFTER_LAYER_CHANGE
;0.84
G1 X34.537 Y45.782
G1 E5.00000 F2400.000
G1 F1500.000
G1 X35.487 Y45.675 E0.02644
G1 X195.513 Y45.675 E4.42471
G1 X196.463 Y45.782 E0.02644
G1 X197.377 Y46.102 E0.02679
G1 X198.197 Y46.617 E0.02679
G1 X198.883 Y47.303 E0.02679
G1 X199.398 Y48.123 E0.02679
G1 X199.718 Y49.037 E0.02679
G1 X199.825 Y49.987 E0.02644
G1 X199.825 Y181.013 E3.62286
G1 X199.718 Y181.963 E0.02644
G1 X199.398 Y182.877 E0.02679
G1 X198.883 Y183.697 E0.02679
G1 X198.197 Y184.383 E0.02679
G1 X197.377 Y184.898 E0.02679
G1 X196.463 Y185.218 E0.02679
G1 X195.513 Y185.325 E0.02644
G1 X35.487 Y185.325 E4.42471
G1 X34.537 Y185.218 E0.02644
G1 X33.623 Y184.898 E0.02679
G1 X32.803 Y184.383 E0.02679
G1 X32.117 Y183.697 E0.02679
G1 X31.602 Y182.877 E0.02679
G1 X31.282 Y181.963 E0.02679
G1 X31.175 Y181.013 E0.02644
G1 X31.175 Y49.987 E3.62286
G1 X31.282 Y49.037 E0.02644
G1 X31.602 Y48.123 E0.02679
G1 X32.117 Y47.303 E0.02679
G1 X32.803 Y46.617 E0.02679
G1 X33.623 Y46.102 E0.02679
G1 X34.481 Y45.802 E0.02513
G1 X34.655 Y45.400 F9000.000
G1 X34.367 Y45.476
G1 F1500.000
G1 X34.460 Y45.444 E0.00273
G1 X35.513 Y45.325 E0.02929
G1 X195.571 Y45.334 E4.42563
G1 X196.540 Y45.444 E0.02696
G1 X197.528 Y45.789 E0.02894
G1 X198.414 Y46.346 E0.02894
G1 X199.154 Y47.086 E0.02894
G1 X199.711 Y47.972 E0.02894
G1 X200.056 Y48.960 E0.02894
G1 X200.175 Y50.013 E0.02929
G1 X200.175 Y180.987 E3.62146
G1 X200.056 Y182.040 E0.02929
G1 X199.711 Y183.028 E0.02894
G1 X199.154 Y183.914 E0.02894
G1 X198.414 Y184.654 E0.02894
G1 X197.528 Y185.211 E0.02894
G1 X196.540 Y185.556 E0.02894
G1 X195.487 Y185.675 E0.02929
G1 X35.513 Y185.675 E4.42331
G1 X34.460 Y185.556 E0.02929
G1 X33.472 Y185.211 E0.02894
G1 X32.586 Y184.654 E0.02894
G1 X31.846 Y183.914 E0.02894
G1 X31.289 Y183.028 E0.02894
G1 X30.944 Y182.040 E0.02894
G1 X30.825 Y180.987 E0.02929
G1 X30.825 Y50.013 E3.62146
G1 X30.944 Y48.960 E0.02929
G1 X31.289 Y47.972 E0.02894
G1 X31.846 Y47.086 E0.02894
G1 X32.586 Y46.346 E0.02894
G1 X33.472 Y45.789 E0.02894
G1 X34.310 Y45.496 E0.02454
G1 X34.444 Y45.538 F9000.000
;LAYER_CHANGE
;Z:1
;HEIGHT:0.16
;BEFORE_LAYER_CHANGE
G92 E0
;1


G1 E-3.50000 F3600.000
;WIPE_START
G1 F7200.000
G1 X34.460 Y45.444 E-0.07546
G1 X35.513 Y45.325 E-0.50315
G1 X37.295 Y45.325 E-0.84639
;WIPE_END
G1 E-0.07500 F3600.000
G1 Z1.000 F9000.000
;AFTER_LAYER_CHANGE
;1
G1 X34.537 Y45.782
G1 E5.00000 F2400.000
G1 F1500.000
G1 X35.487 Y45.675 E0.02644
G1 X195.513 Y45.675 E4.42471
G1 X196.463 Y45.782 E0.02644
G1 X197.377 Y46.102 E0.02679
G1 X198.197 Y46.617 E0.02679
