; generated by PrusaSlicer 2.3.3+win64 on 2022-04-21 at 20:08:13 UTC

; 

; external perimeters extrusion width = 0.45mm
; perimeters extrusion width = 0.45mm
; infill extrusion width = 0.45mm
; solid infill extrusion width = 0.45mm
; top infill extrusion width = 0.40mm
; first layer extrusion width = 0.42mm

M201 X500 Y500 Z100 E5000 ; sets maximum accelerations, mm/sec^2
M203 X500 Y500 Z10 E60 ; sets maximum feedrates, mm/sec
M204 P500 R1000 T500 ; sets acceleration (P, T) and retract acceleration (R), mm/sec^2
M205 X8.00 Y8.00 Z0.40 E5.00 ; sets the jerk limits, mm/sec
M205 S0 T0 ; sets the minimum extruding and travel feed rate, mm/sec
M107
;TYPE:Custom
G90 ; use absolute coordinates
M83 ; extruder relative mode
M140 S60 ; set final bed temp
M104 S150 ; set temporary nozzle temp to prevent oozing during homing and auto bed leveling
G4 S10 ; allow partial nozzle warmup
G28 ; home all axis
G29 ; auto bed levelling
G1 Z50 F240
G1 X2 Y10 F3000
M104 S210 ; set final nozzle temp
M190 S60 ; wait for bed temp to stabilize
M109 S210 ; wait for nozzle temp to stabilize
G1 Z0.28 F240
G92 E0
G1 Y140 E10 F1500 ; prime the nozzle
G1 X2.3 F5000
G92 E0
G1 Y10 E10 F1200 ; prime the nozzle
G92 E0
G21 ; set units to millimeters
G90 ; use absolute coordinates
M83 ; use relative distances for extrusion
; Filament gcode
;LAYER_CHANGE
;Z:0.2
;HEIGHT:0.2
;BEFORE_LAYER_CHANGE
G92 E0
;0.2


G1 E-5.00000 F3600.000
G1 Z0.200 F9000.000
;AFTER_LAYER_CHANGE
;0.2
G1 X83.537 Y96.331
G1 E5.00000 F2400.000
M204 S500
;TYPE:Skirt
;WIDTH:0.42
G1 F1200.000
G1 X84.729 Y95.346 E0.04850
G1 X86.134 Y94.577 E0.05019
G1 X117.687 Y81.967 E1.06540
G1 X118.981 Y81.802 E0.04092
G1 X147.205 Y81.802 E0.88492
G1 X148.153 Y81.889 E0.02985
G1 X149.270 Y82.219 E0.03653
G1 X150.114 Y82.660 E0.02987
G1 X150.868 Y83.250 E0.03001
G1 X151.624 Y84.125 E0.03625
G1 X152.098 Y84.962 E0.03015
G1 X152.411 Y85.861 E0.02987
G1 X152.574 Y87.033 E0.03710
G1 X152.573 Y138.735 E1.62107
G1 X152.517 Y139.550 E0.02560
G1 X152.297 Y140.721 E0.03736
G1 X151.761 Y142.180 E0.04874
G1 X150.919 Y143.582 E0.05130
G1 X149.931 Y144.688 E0.04648
G1 X148.741 Y145.616 E0.04733
G1 X147.825 Y146.130 E0.03292
G1 X146.481 Y146.640 E0.04506
G1 X145.024 Y146.915 E0.04648
G1 X108.167 Y149.194 E1.15783
G1 X81.682 Y149.196 E0.83043
G1 X81.048 Y149.113 E0.02004
G1 X80.437 Y148.911 E0.02018
G1 X79.879 Y148.599 E0.02004
G1 X79.387 Y148.184 E0.02018
G1 X79.008 Y147.721 E0.01877
G1 X78.715 Y147.194 E0.01891
G1 X78.521 Y146.628 E0.01877
G1 X78.429 Y146.031 E0.01891
G1 X78.423 Y132.607 E0.42091
G1 X79.534 Y113.151 E0.61104
G1 X81.341 Y100.197 E0.41009
G1 X81.683 Y99.137 E0.03494
G1 X82.156 Y98.148 E0.03437
G1 X82.744 Y97.244 E0.03380
G1 X83.498 Y96.377 E0.03603
G1 E-3.50000 F3600.000
;WIPE_START
G1 F7200.000
G1 X84.729 Y95.346 E-0.76280
G1 X85.952 Y94.677 E-0.66220
;WIPE_END
G1 E-0.07500 F3600.000
G1 X104.833 Y137.700 F9000.000
G1 E5.00000 F2400.000
;TYPE:External perimeter
G1 F1200.000
G1 X105.092 Y137.611 E0.00860
G1 X105.363 Y137.565 E0.00860
G1 X105.637 Y137.565 E0.00860
G1 X105.908 Y137.611 E0.00860
G1 X106.167 Y137.700 E0.00860
G1 X106.409 Y137.830 E0.00860
G1 X106.625 Y137.999 E0.00860
G1 X106.811 Y138.201 E0.00860
G1 X106.953 Y138.418 E0.00814
G1 X107.071 Y138.681 E0.00903
G1 X107.138 Y138.947 E0.00863
G1 X107.161 Y139.221 E0.00860
G1 X107.138 Y139.494 E0.00860
G1 X107.071 Y139.760 E0.00860
G1 X106.961 Y140.011 E0.00860
G1 X106.811 Y140.241 E0.00860
G1 X106.625 Y140.443 E0.00860
G1 X106.409 Y140.611 E0.00860
G1 X106.167 Y140.742 E0.00860
G1 X105.908 Y140.831 E0.00860
G1 X105.637 Y140.876 E0.00860
G1 X105.363 Y140.876 E0.00860
G1 X105.092 Y140.831 E0.00860
G1 X104.833 Y140.742 E0.00860
G1 X104.591 Y140.611 E0.00860
G1 X104.375 Y140.443 E0.00860
G1 X104.189 Y140.241 E0.00860
G1 X104.047 Y140.024 E0.00814
G1 X103.929 Y139.761 E0.00903
G1 X103.862 Y139.494 E0.00863
G1 X103.839 Y139.221 E0.00860
G1 X103.862 Y138.947 E0.00860
G1 X103.929 Y138.681 E0.00860
G1 X104.039 Y138.430 E0.00860
G1 X104.189 Y138.201 E0.00860
G1 X104.375 Y137.999 E0.00860
G1 X104.591 Y137.830 E0.00860
G1 X104.780 Y137.728 E0.00672
G1 X104.863 Y137.427 F9000.000
G1 E-3.50000 F3600.000
;WIPE_START
G1 F7200.000
G1 X105.092 Y137.611 E-0.15849
G1 X105.363 Y137.565 E-0.13031
G1 X105.637 Y137.565 E-0.13031
G1 X105.908 Y137.611 E-0.13031
G1 X106.167 Y137.700 E-0.13031
G1 X106.409 Y137.830 E-0.13031
G1 X106.625 Y137.999 E-0.13031
G1 X106.811 Y138.201 E-0.13031
G1 X106.953 Y138.418 E-0.12328
G1 X107.071 Y138.681 E-0.13681
G1 X107.120 Y138.873 E-0.09425
;WIPE_END
G1 E-0.07500 F3600.000
G1 X107.285 Y138.236 F9000.000
G1 E5.00000 F2400.000
;TYPE:Perimeter
G1 F1200.000
G1 X107.109 Y137.968 E0.01004
G1 X106.881 Y137.720 E0.01056
G1 X106.615 Y137.513 E0.01056
G1 X106.319 Y137.353 E0.01056
G1 X106.001 Y137.244 E0.01056
G1 X105.668 Y137.188 E0.01056
G1 X105.332 Y137.188 E0.01056
G1 X104.999 Y137.244 E0.01056
G1 X104.681 Y137.353 E0.01056
G1 X104.385 Y137.513 E0.01056
G1 X104.119 Y137.720 E0.01056
G1 X103.891 Y137.968 E0.01056
G1 X103.706 Y138.250 E0.01056
G1 X103.571 Y138.559 E0.01056
G1 X103.488 Y138.885 E0.01056
G1 X103.461 Y139.221 E0.01056
G1 X103.488 Y139.556 E0.01056
G1 X103.572 Y139.886 E0.01064
G1 X103.715 Y140.205 E0.01099
G1 X103.891 Y140.473 E0.01004
G1 X104.119 Y140.721 E0.01056
G1 X104.385 Y140.928 E0.01056
G1 X104.681 Y141.088 E0.01056
G1 X104.999 Y141.198 E0.01056
G1 X105.332 Y141.253 E0.01056
G1 X105.668 Y141.253 E0.01056
G1 X106.001 Y141.198 E0.01056
G1 X106.319 Y141.088 E0.01056
G1 X106.615 Y140.928 E0.01056
G1 X106.881 Y140.721 E0.01056
G1 X107.109 Y140.473 E0.01056
G1 X107.313 Y140.148 E0.01205
G1 X107.313 Y145.134 E0.15634
G1 X82.487 Y145.134 E0.77840
G1 X82.487 Y140.142 E0.15650
G1 X82.691 Y140.473 E0.01219
G1 X82.919 Y140.721 E0.01056
G1 X83.185 Y140.928 E0.01056
G1 X83.481 Y141.088 E0.01056
G1 X83.799 Y141.198 E0.01056
G1 X84.132 Y141.253 E0.01056
G1 X84.468 Y141.253 E0.01056
G1 X84.801 Y141.198 E0.01056
G1 X85.119 Y141.088 E0.01056
G1 X85.415 Y140.928 E0.01056
G1 X85.681 Y140.721 E0.01056
G1 X85.909 Y140.473 E0.01056
G1 X86.094 Y140.191 E0.01056
G1 X86.229 Y139.883 E0.01056
G1 X86.312 Y139.554 E0.01064
G1 X86.338 Y139.204 E0.01099
G1 X86.312 Y138.885 E0.01004
G1 X86.229 Y138.559 E0.01056
G1 X86.094 Y138.250 E0.01056
G1 X85.909 Y137.968 E0.01056
G1 X85.681 Y137.720 E0.01056
G1 X85.413 Y137.512 E0.01064
G1 X85.104 Y137.348 E0.01099
G1 X84.801 Y137.244 E0.01004
G1 X84.468 Y137.188 E0.01056
G1 X84.132 Y137.188 E0.01056
G1 X83.799 Y137.244 E0.01056
G1 X83.481 Y137.353 E0.01056
G1 X83.185 Y137.513 E0.01056
G1 X82.919 Y137.720 E0.01056
G1 X82.691 Y137.968 E0.01056
G1 X82.487 Y138.294 E0.01205
G1 X82.487 Y133.308 E0.15634
G1 X107.313 Y133.308 E0.77840
G1 X107.309 Y138.291 E0.15624
G1 E-3.50000 F3600.000
;WIPE_START
G1 F7200.000
G1 X107.109 Y137.968 E-0.18035
G1 X106.881 Y137.720 E-0.15999
G1 X106.615 Y137.513 E-0.15999
G1 X106.319 Y137.353 E-0.16000
G1 X106.001 Y137.244 E-0.16000
G1 X105.668 Y137.188 E-0.15999
G1 X105.332 Y137.188 E-0.15999
G1 X104.999 Y137.244 E-0.15999
G1 X104.751 Y137.329 E-0.12469
;WIPE_END
G1 E-0.07500 F3600.000
G1 X85.960 Y139.206 F9000.000
G1 E5.00000 F2400.000
;TYPE:External perimeter
G1 F1200.000
G1 X85.939 Y139.493 E0.00903
G1 X85.871 Y139.760 E0.00863
G1 X85.761 Y140.011 E0.00860
G1 X85.611 Y140.241 E0.00860
G1 X85.425 Y140.443 E0.00860
G1 X85.209 Y140.611 E0.00860
G1 X84.967 Y140.742 E0.00860
G1 X84.708 Y140.831 E0.00860
G1 X84.437 Y140.876 E0.00860
G1 X84.163 Y140.876 E0.00860
G1 X83.892 Y140.831 E0.00860
G1 X83.633 Y140.742 E0.00860
G1 X83.391 Y140.611 E0.00860
G1 X83.175 Y140.443 E0.00860
G1 X82.989 Y140.241 E0.00860
G1 X82.847 Y140.024 E0.00814
G1 X82.729 Y139.761 E0.00903
G1 X82.662 Y139.494 E0.00863
G1 X82.639 Y139.221 E0.00860
G1 X82.662 Y138.947 E0.00860
G1 X82.729 Y138.681 E0.00860
G1 X82.839 Y138.430 E0.00860
G1 X82.989 Y138.201 E0.00860
G1 X83.175 Y137.999 E0.00860
G1 X83.391 Y137.830 E0.00860
G1 X83.633 Y137.700 E0.00860
G1 X83.892 Y137.611 E0.00860
G1 X84.163 Y137.565 E0.00860
G1 X84.437 Y137.565 E0.00860
G1 X84.708 Y137.611 E0.00860
G1 X84.953 Y137.695 E0.00814
G1 X85.208 Y137.830 E0.00903
G1 X85.425 Y137.999 E0.00863
G1 X85.611 Y138.201 E0.00860
G1 X85.761 Y138.430 E0.00860
G1 X85.871 Y138.681 E0.00860
G1 X85.938 Y138.947 E0.00860
G1 X85.955 Y139.146 E0.00626
G1 X86.210 Y139.348 F9000.000
G1 E-3.50000 F3600.000
;WIPE_START
G1 F7200.000
G1 X85.939 Y139.493 E-0.16502
G1 X85.871 Y139.760 E-0.13076
G1 X85.761 Y140.011 E-0.13031
G1 X85.611 Y140.241 E-0.13031
G1 X85.425 Y140.443 E-0.13031
G1 X85.209 Y140.611 E-0.13031
G1 X84.967 Y140.742 E-0.13031
G1 X84.708 Y140.831 E-0.13031
G1 X84.437 Y140.876 E-0.13031
G1 X84.163 Y140.876 E-0.13031
G1 X83.983 Y140.846 E-0.08673
;WIPE_END
G1 E-0.07500 F3600.000
G1 X82.110 Y132.931 F9000.000
G1 E5.00000 F2400.000
G1 F1200.000
G1 X107.690 Y132.931 E0.80204
G1 X107.690 Y145.511 E0.39444
G1 X82.110 Y145.511 E0.80204
G1 X82.110 Y132.991 E0.39256
G1 X82.505 Y132.992 F9000.000
G1 E-3.50000 F3600.000
;WIPE_START
G1 F7200.000
G1 X85.110 Y132.984 E-1.42500
;WIPE_END
G1 E-0.07500 F3600.000
G1 X82.588 Y138.508 F9000.000
G1 E5.00000 F2400.000
;TYPE:Gap fill
;WIDTH:0.268609
G1 F1200.000
G1 X82.425 Y138.602 E0.00355
G1 X82.406 Y138.748 E0.00276
;WIDTH:0.258496
G1 X82.388 Y138.894 E0.00264
;WIDTH:0.22211
G1 X82.374 Y139.215 E0.00478
;WIDTH:0.194394
G1 X82.406 Y139.691 E0.00601
;WIDTH:0.293752
G1 X82.424 Y139.835 E0.00302
G1 X82.448 Y139.849 E0.00058
;WIDTH:0.255137
G1 X82.587 Y139.928 E0.00282
G1 E-3.50000 F3600.000
;WIPE_START
G1 F7200.000
G1 X82.448 Y139.849 E-0.07600
;WIPE_END
G1 E-1.42400 F3600.000
G1 X107.212 Y139.934 F9000.000
G1 E5.00000 F2400.000
;WIDTH:0.268615
G1 F1200.000
G1 X107.375 Y139.839 E0.00355
G1 X107.394 Y139.693 E0.00276
;WIDTH:0.258494
G1 X107.412 Y139.547 E0.00264
;WIDTH:0.222107
G1 X107.426 Y139.227 E0.00478
;WIDTH:0.194392
G1 X107.394 Y138.751 E0.00601
;WIDTH:0.29375
G1 X107.376 Y138.607 E0.00302
G1 X107.352 Y138.592 E0.00058
;WIDTH:0.255137
G1 X107.213 Y138.514 E0.00282
G1 E-3.50000 F3600.000
;WIPE_START
G1 F7200.000
G1 X107.352 Y138.592 E-0.07600
;WIPE_END
G1 E-1.42400 F3600.000
G1 X107.200 Y134.184 F9000.000
G1 E5.00000 F2400.000
;TYPE:Solid infill
;WIDTH:0.420126
G1 F1200.000
G1 X106.607 Y133.591 E0.02630
G1 X106.074 Y133.591 E0.01673
G1 X107.030 Y134.547 E0.04243
G1 X107.030 Y135.081 E0.01673
G1 X105.540 Y133.591 E0.06609
G1 X105.007 Y133.591 E0.01673
G1 X107.030 Y135.614 E0.08976
G1 X107.030 Y136.148 E0.01673
G1 X104.473 Y133.591 E0.11342
G1 X103.940 Y133.591 E0.01673
G1 X107.030 Y136.681 E0.13708
G1 X107.030 Y137.215 E0.01673
G1 X103.406 Y133.591 E0.16074
G1 X102.873 Y133.591 E0.01673
G1 X106.345 Y137.063 E0.15402
G1 X106.070 Y136.969 E0.00912
G1 X105.654 Y136.906 E0.01320
G1 X102.339 Y133.591 E0.14704
G1 X101.806 Y133.591 E0.01673
G1 X105.148 Y136.932 E0.14822
G1 X104.930 Y136.969 E0.00693
G1 X104.722 Y137.040 E0.00689
G1 X101.272 Y133.591 E0.15300
G1 X100.739 Y133.591 E0.01673
G1 X104.356 Y137.207 E0.16043
G1 X104.229 Y137.276 E0.00451
G1 X104.039 Y137.424 E0.00757
G1 X100.206 Y133.591 E0.17004
G1 X99.672 Y133.591 E0.01673
G1 X103.767 Y137.685 E0.18162
G1 X103.667 Y137.794 E0.00463
G1 X103.538 Y137.990 E0.00736
G1 X99.139 Y133.591 E0.19515
G1 X98.605 Y133.591 E0.01673
G1 X103.357 Y138.343 E0.21078
G1 X103.303 Y138.466 E0.00425
G1 X103.231 Y138.750 E0.00917
G1 X98.072 Y133.591 E0.22884
G1 X97.538 Y133.591 E0.01673
G1 X103.363 Y139.416 E0.25837
G1 E-3.50000 F3600.000
;WIPE_START
G1 F7200.000
G1 X101.242 Y137.294 E-1.42500
;WIPE_END
G1 E-0.07500 F3600.000
G1 X106.609 Y141.061 F9000.000
G1 E5.00000 F2400.000
G1 F1200.000
G1 X107.030 Y141.482 E0.01870
G1 X107.030 Y142.016 E0.01673
G1 X106.381 Y141.366 E0.02880
G1 X106.070 Y141.473 E0.01030
G1 X105.971 Y141.490 E0.00317
G1 X107.030 Y142.549 E0.04700
G1 X107.030 Y143.083 E0.01673
G1 X105.312 Y141.365 E0.07619
G1 E-3.50000 F3600.000
;WIPE_START
G1 F7200.000
G1 X107.030 Y143.083 E-1.15390
G1 X107.030 Y142.549 E-0.25339
G1 X107.004 Y142.523 E-0.01771
;WIPE_END
G1 E-0.07500 F3600.000
G1 X107.200 Y143.786 F9000.000
G1 E5.00000 F2400.000
G1 F1200.000
G1 X104.865 Y141.451 E0.10357
G1 X104.567 Y141.348 E0.00988
G1 X104.229 Y141.166 E0.01203
G1 X103.927 Y140.930 E0.01203
G1 X103.667 Y140.648 E0.01203
G1 X103.467 Y140.341 E0.01148
G1 X103.304 Y139.979 E0.01246
G1 X103.273 Y139.859 E0.00388
G1 X97.005 Y133.591 E0.27805
G1 X96.471 Y133.591 E0.01673
G1 X107.030 Y144.149 E0.46835
G1 X107.030 Y144.683 E0.01673
G1 X95.938 Y133.591 E0.49201
G1 X95.405 Y133.591 E0.01673
G1 X106.665 Y144.851 E0.49947
G1 X106.131 Y144.851 E0.01673
G1 X94.871 Y133.591 E0.49947
G1 X94.338 Y133.591 E0.01673
G1 X105.598 Y144.851 E0.49947
G1 X105.064 Y144.851 E0.01673
G1 X93.804 Y133.591 E0.49947
G1 X93.271 Y133.591 E0.01673
G1 X104.531 Y144.851 E0.49947
G1 X103.998 Y144.851 E0.01673
G1 X92.737 Y133.591 E0.49947
G1 X92.204 Y133.591 E0.01673
G1 X103.464 Y144.851 E0.49947
G1 X102.931 Y144.851 E0.01673
G1 X91.670 Y133.591 E0.49947
G1 X91.137 Y133.591 E0.01673
G1 X102.397 Y144.851 E0.49947
G1 X101.864 Y144.851 E0.01673
G1 X90.603 Y133.591 E0.49947
G1 X90.070 Y133.591 E0.01673
G1 X101.330 Y144.851 E0.49947
G1 X100.797 Y144.851 E0.01673
G1 X89.537 Y133.591 E0.49947
G1 X89.003 Y133.591 E0.01673
G1 X100.263 Y144.851 E0.49947
G1 X99.730 Y144.851 E0.01673
G1 X88.470 Y133.591 E0.49947
G1 X87.936 Y133.591 E0.01673
G1 X99.196 Y144.851 E0.49947
G1 X98.663 Y144.851 E0.01673
G1 X87.403 Y133.591 E0.49947
G1 X86.869 Y133.591 E0.01673
G1 X98.130 Y144.851 E0.49947
G1 X97.596 Y144.851 E0.01673
G1 X86.336 Y133.591 E0.49947
G1 X85.802 Y133.591 E0.01673
G1 X97.063 Y144.851 E0.49947
G1 X96.529 Y144.851 E0.01673
G1 X85.269 Y133.591 E0.49947
G1 X84.736 Y133.591 E0.01673
G1 X95.996 Y144.851 E0.49947
G1 X95.462 Y144.851 E0.01673
G1 X84.202 Y133.591 E0.49947
G1 X83.669 Y133.591 E0.01673
G1 X94.929 Y144.851 E0.49947
G1 X94.395 Y144.851 E0.01673
G1 X83.135 Y133.591 E0.49947
G1 X82.770 Y133.591 E0.01146
G1 X82.770 Y133.759 E0.00527
G1 X93.862 Y144.851 E0.49201
G1 X93.329 Y144.851 E0.01673
G1 X82.770 Y134.292 E0.46834
G1 X82.770 Y134.826 E0.01673
G1 X84.935 Y136.991 E0.09604
G1 X85.216 Y137.088 E0.00933
G1 X85.568 Y137.273 E0.01246
G1 X85.873 Y137.512 E0.01216
G1 X86.133 Y137.794 E0.01203
G1 X86.343 Y138.115 E0.01203
G1 X86.497 Y138.466 E0.01203
G1 X86.527 Y138.583 E0.00376
G1 X92.795 Y144.851 E0.27804
G1 X92.262 Y144.851 E0.01673
G1 X86.621 Y139.211 E0.25019
G1 X86.592 Y139.599 E0.01223
G1 X86.569 Y139.692 E0.00299
G1 X91.728 Y144.851 E0.22884
G1 X91.195 Y144.851 E0.01673
G1 X86.443 Y140.099 E0.21077
G1 X86.343 Y140.327 E0.00779
G1 X86.262 Y140.451 E0.00468
G1 X90.661 Y144.851 E0.19515
G1 X90.128 Y144.851 E0.01673
G1 X86.033 Y140.756 E0.18162
G1 X85.873 Y140.930 E0.00740
G1 X85.761 Y141.018 E0.00447
G1 X89.594 Y144.851 E0.17003
G1 X89.061 Y144.851 E0.01673
G1 X85.444 Y141.234 E0.16043
G1 X85.233 Y141.348 E0.00752
G1 X85.078 Y141.402 E0.00514
G1 X88.527 Y144.851 E0.15300
G1 X87.994 Y144.851 E0.01673
G1 X84.652 Y141.509 E0.14822
G1 X84.492 Y141.536 E0.00510
G1 X84.146 Y141.536 E0.01086
G1 X87.461 Y144.851 E0.14704
G1 X86.927 Y144.851 E0.01673
G1 X83.455 Y141.379 E0.15402
G1 X83.029 Y141.166 E0.01492
G1 X82.770 Y140.964 E0.01031
G1 X82.770 Y141.227 E0.00826
G1 X86.394 Y144.851 E0.16074
G1 X85.860 Y144.851 E0.01673
G1 X82.770 Y141.761 E0.13708
G1 X82.770 Y142.294 E0.01673
G1 X85.327 Y144.851 E0.11341
G1 X84.793 Y144.851 E0.01673
G1 X82.770 Y142.828 E0.08975
G1 X82.770 Y143.361 E0.01673
G1 X84.260 Y144.851 E0.06609
G1 X83.726 Y144.851 E0.01673
G1 X82.770 Y143.894 E0.04243
G1 X82.770 Y144.428 E0.01673
G1 X83.363 Y145.021 E0.02629
G1 E-3.50000 F3600.000
;WIPE_START
G1 F7200.000
G1 X82.770 Y144.428 E-0.39819
G1 X82.770 Y143.894 E-0.25339
G1 X83.726 Y144.851 E-0.64255
G1 X84.002 Y144.851 E-0.13086
;WIPE_END
G1 E-0.07500 F3600.000
G1 X84.488 Y137.077 F9000.000
G1 E5.00000 F2400.000
G1 F1200.000
G1 X82.770 Y135.359 E0.07619
G1 X82.770 Y135.893 E0.01673
G1 X83.829 Y136.952 E0.04699
G1 X83.730 Y136.969 E0.00317
G1 X83.419 Y137.075 E0.01030
G1 X82.770 Y136.426 E0.02880
G1 X82.770 Y136.960 E0.01673
G1 X83.191 Y137.381 E0.01870
G1 E-3.50000 F3600.000
;WIPE_START
